X:1
T:The Touch of His Hand on Mine
T:The Touch of His Hand on Mine
T:Henry Prior Morton
T:Jessie Brown Pounds, 1913
T:Public Domain Courtesy of the Cyber Hymnal™
T:Public Domain Courtesy of the Cyber Hymnal™
C:Henry Prior Morton
Z:Public Domain
Z:Courtesy of the Cyber Hymnal™
%%score ( 1 2 ) ( 3 4 )
L:1/8
Q:1/4=110
M:4/4
K:Ab
V:1 treble 
V:2 treble 
V:3 bass 
V:4 bass 
V:1
 [A,C]>[B,D] | [CE]2 [Fd]2 [Ec]2 [DG]>[EA] | [DB]2 [DB]2 [DF]2 [=DF]>[DA] | %3
w: 1.~There are|days so dark that I|seek in vain For the|
w: 2.~There are|times, when tired of the|toil- some road, That for|
w: 3.~When the|way is dim, and I|can- not see Through the|
w: 4.~In the|last sad hour, as I|stand a- lone, Where the|
 [EG]2 [B,D]>[B,E] [DG]2 [DF]2 | [CE]6 [A,C]>[B,D] | [CE]2 [Fd]2 [Ec]2 [DG]>[EA] | %6
w: face of my friend di-|vine; But though|dark- ness hide, He is|
w: ways of the world I|pine; But He|draws me back to the|
w: mist of His wise de-|sign, How my|glad heart yearns and my|
w: pow- ers of death com-|bine, While the|dark waves roll He will|
 [DB]2 [DB]2 [DF]2 [=B,G]>[B,F] | [CE]2 [Ec]>[Ed] [Ec]2 [DB]2 | [CA]6 ||"^Refrain" [CA]>[CA] | %10
w: there to guide By the|touch of His hand on|mine.||
w: up- ward track By the|touch of His hand on|mine.||
w: faith re- turns By the|touch of His hand on|mine.||
w: guide my soul By the|touch of His hand on|mine.||
 [DG]2 [Ed]>[Fd] [Gd]2 [^Fd]2 | d6 [DF]>[DG] | [CE]2 [Ec]>[Ac] [Gc]2 [Fc]2 | c6 [Ec]>[Ed] | %14
w: ||||
w: ||||
w: ||||
w: ||||
 [Ae]2 [Ae]2 [Ae]2 [Ec]>[EB] | [EA]2 [_GA]2 !fermata![FA]2 [=B,G]>[B,F] | %16
w: ||
w: ||
w: ||
w: ||
 [CE]2 [Ec]>[Ed] [Ec]2 [DB]2 | [CA]6 |] %18
w: ||
w: ||
w: ||
w: ||
V:2
 x2 | x8 | x8 | x8 | x8 | x8 | x8 | x8 | x6 || x2 | x8 | (G2 F2 E2) x2 | x8 | (E2 F2 E2) x2 | x8 | %15
 x8 | x8 | x6 |] %18
V:3
 [A,,E,]>[A,,E,] | [A,,A,]2 [A,,A,]2 [A,,A,]2 [B,,E,]>[C,A,] | %2
w: ~ ~|~ ~ ~ ~ ~|
 [D,F,]2 [D,F,]2 [D,B,]2 [B,,B,]>[B,,B,] | [E,B,]2 [E,G,]>[E,G,] [E,B,]2 [E,G,]2 | %4
w: ~ ~ ~ ~ ~|~ ~ ~ ~ ~|
 [A,,A,]6 [A,,E,]>[A,,E,] | [A,,A,]2 [A,,A,]2 [A,,A,]2 [B,,E,]>[C,A,] | %6
w: ~ ~ ~|~ ~ ~ ~ ~|
 [D,F,]2 [D,F,]2 [D,B,]2 [=D,A,]>[D,A,] | [E,A,]2 [E,A,]>[E,B,] [E,A,]2 [E,G,]2 | [A,,A,]6 || %9
w: ~ ~ ~ ~ ~|~ ~ ~ ~ ~|~|
 [A,,A,]>[A,,A,] | [E,B,]2 [E,G,]>[E,B,] [E,B,]2 [E,=A,]2 | (B,2 A,2 G,2) [E,G,]>[E,G,] | %12
w: Oh, the|touch of His hand on|mine, * * Oh, the|
 [A,,A,]2 [A,,A,]>[A,,A,] [A,,A,]2 [A,,A,]2 | (A,2 A,2 A,2) A,>[A,B,] | %14
w: touch of His hand on|mine, * * There is|
 [A,C]2 [A,C]2 [A,C]2 [A,,A,]>[B,,G,] | [C,A,]2 [C,E]2 [D,D]2 [=D,A,]>[D,A,] | %16
w: grace and power, in the|try- ing hour, In the|
 [E,A,]2 [E,A,]>[E,B,] [E,A,]2 [E,G,]2 | [A,,A,]6 |] %18
w: touch of His hand on|mine.|
V:4
 x2 | x8 | x8 | x8 | x8 | x8 | x8 | x8 | x6 || x2 | x8 | E,6 x2 | x8 | A,,6 x2 | x8 | x8 | x8 | %17
 x6 |] %18

